symbols/web/pageview/materialsymbolssharp/pageview_wght600grad200fill1_24px.svg

<svg xmlns="http://www.w3.org/2000/svg" height="24" width="24"><path d="m15.875 17.8 1.85-1.825-1.65-1.65q.35-.55.525-1.15.175-.6.175-1.35 0-2.1-1.437-3.538Q13.9 6.85 11.825 6.85q-2.1 0-3.537 1.437Q6.85 9.725 6.85 11.825q0 2.075 1.438 3.512 1.437 1.438 3.537 1.438.625 0 1.237-.163.613-.162 1.163-.462Zm-4.05-3.675q-1 0-1.662-.65-.663-.65-.663-1.65 0-1 .663-1.663.662-.662 1.662-.662 1 0 1.65.662.65.663.65 1.663t-.65 1.65q-.65.65-1.65.65ZM1.1 20.875V3.125h21.8v17.75Z"/></svg>

<svg xmlns="http://www.w3.org/2000/svg" height="24" width="24"><path d="M15.875 17.8 17.725 15.975 16.075 14.325Q16.425 13.775 16.6 13.175Q16.775 12.575 16.775 11.825Q16.775 9.725 15.338 8.287Q13.9 6.85 11.825 6.85Q9.725 6.85 8.288 8.287Q6.85 9.725 6.85 11.825Q6.85 13.9 8.288 15.337Q9.725 16.775 11.825 16.775Q12.45 16.775 13.062 16.612Q13.675 16.45 14.225 16.15ZM11.825 14.125Q10.825 14.125 10.163 13.475Q9.5 12.825 9.5 11.825Q9.5 10.825 10.163 10.162Q10.825 9.5 11.825 9.5Q12.825 9.5 13.475 10.162Q14.125 10.825 14.125 11.825Q14.125 12.825 13.475 13.475Q12.825 14.125 11.825 14.125ZM1.1 20.875V3.125H22.9V20.875Z"/></svg>
